X: 39155
T: Sweets Of May, The
R: jig
M: 6/8
K: Gmajor
d2c|B2G A2D|GAG Gdc|BdB GAB|cBc Adc|B2G A2D|GAG G2A|B2B cAF|1 G3||

